src/assets/images/icons/app-icon-timer.svg

<svg xmlns="http://www.w3.org/2000/svg" viewBox="0 0 96 96">
  <g fill="none" fill-rule="evenodd">
    <path d="M0 0h96v96H0z"/>
    <path fill="#00A69B" fill-rule="nonzero" d="M48.28 24.04c-15.48 0-28 12.52-28 28s12.52 28 28 28 28-12.52 28-28-12.52-28-28-28Zm4 32h-8v-24h8v24Z" opacity=".502"/>
    <path fill="#575752" fill-rule="nonzero" d="M36.28 4.04h24v8h-24v-8Zm8 28h8v24h-8v-24Zm32.12-2.48 5.68-5.68c-1.72-2.04-3.6-3.96-5.64-5.64l-5.68 5.68c-6.2-4.96-14-7.92-22.48-7.92-19.88 0-36 16.12-36 36s16.08 36 36 36 36-16.12 36-36c0-8.44-2.96-16.28-7.88-22.44ZM48.28 80.04c-15.48 0-28-12.52-28-28s12.52-28 28-28 28 12.52 28 28-12.52 28-28 28Z"/>
  </g>
</svg>

<?xml version="1.0" encoding="UTF-8"?>
<svg width="96px" height="96px" viewBox="0 0 96 96" version="1.1" xmlns="http://www.w3.org/2000/svg" xmlns:xlink="http://www.w3.org/1999/xlink">
    <!-- Generator: Sketch 52.6 (67491) - http://www.bohemiancoding.com/sketch -->
    <title>app-icon-forum copy 2</title>
    <desc>Created with Sketch.</desc>
    <g id="app-icon-forum-copy-2" stroke="none" stroke-width="1" fill="none" fill-rule="evenodd">
        <g id="timer-24px">
            <polygon id="Path" points="0 0 96 0 96 96 0 96"></polygon>
            <path d="M48.28,24.04 C32.8,24.04 20.28,36.56 20.28,52.04 C20.28,67.52 32.8,80.04 48.28,80.04 C63.76,80.04 76.28,67.52 76.28,52.04 C76.28,36.56 63.76,24.04 48.28,24.04 Z M52.28,56.04 L44.28,56.04 L44.28,32.04 L52.28,32.04 L52.28,56.04 Z" id="Shape" fill="#00A69B" fill-rule="nonzero" opacity="0.501888311"></path>
            <path d="M36.28,4.04 L60.28,4.04 L60.28,12.04 L36.28,12.04 L36.28,4.04 Z M44.28,32.04 L52.28,32.04 L52.28,56.04 L44.28,56.04 L44.28,32.04 Z M76.4,29.56 L82.08,23.88 C80.36,21.84 78.48,19.92 76.44,18.24 L70.76,23.92 C64.56,18.96 56.76,16 48.28,16 C28.4,16 12.28,32.12 12.28,52 C12.28,71.88 28.36,88 48.28,88 C68.2,88 84.28,71.88 84.28,52 C84.28,43.56 81.32,35.72 76.4,29.56 Z M48.28,80.04 C32.8,80.04 20.28,67.52 20.28,52.04 C20.28,36.56 32.8,24.04 48.28,24.04 C63.76,24.04 76.28,36.56 76.28,52.04 C76.28,67.52 63.76,80.04 48.28,80.04 Z" id="Shape" fill="#575752" fill-rule="nonzero"></path>
        </g>
    </g>
</svg>
